svg/s/SK.svg

<svg width="16" height="12" viewBox="0 0 16 12" fill="none" xmlns="http://www.w3.org/2000/svg">
<mask id="mask0" mask-type="alpha" maskUnits="userSpaceOnUse" x="0" y="0" width="16" height="12">
<rect width="16" height="12" fill="white"/>
</mask>
<g mask="url(#mask0)">
<path fill-rule="evenodd" clip-rule="evenodd" d="M0 0V12H16V0H0Z" fill="#3D58DB"/>
<mask id="mask1" mask-type="alpha" maskUnits="userSpaceOnUse" x="0" y="0" width="16" height="12">
<path fill-rule="evenodd" clip-rule="evenodd" d="M0 0V12H16V0H0Z" fill="white"/>
</mask>
<g mask="url(#mask1)">
<path fill-rule="evenodd" clip-rule="evenodd" d="M0 0V4H16V0H0Z" fill="#F7FCFF"/>
<path fill-rule="evenodd" clip-rule="evenodd" d="M0 8V12H16V8H0Z" fill="#E31D1C"/>
<path d="M7.80196 3.01514L8.05055 2.98869L8.02677 2.76514H7.80196H3.17241H2.9387L2.92298 2.99832L3.17241 3.01514L2.92298 2.99836L2.92297 2.99847L2.92294 2.99887L2.92284 3.0004L2.92244 3.00637L2.92092 3.02949L2.91525 3.11759C2.91042 3.19378 2.90365 3.3034 2.89586 3.43738C2.88027 3.70526 2.86058 4.07086 2.84417 4.46145C2.81183 5.23125 2.79039 6.13244 2.84639 6.5533C2.95568 7.37454 3.45575 9.21811 5.38991 10.0536L5.49078 10.0972L5.59109 10.0523C7.4282 9.23085 8.04263 7.57654 8.18436 6.55467C8.25589 6.03895 8.21954 5.13653 8.16933 4.38663C8.14388 4.00662 8.11422 3.65745 8.09092 3.40335C8.07927 3.27625 8.0692 3.17281 8.06204 3.10105L8.05363 3.01814L8.05136 2.99636L8.05077 2.99071L8.05061 2.98924L8.05057 2.98885L8.05056 2.98874L7.80196 3.01514Z" fill="#E31D1C" stroke="white" stroke-width="0.5"/>
<mask id="mask2" mask-type="alpha" maskUnits="userSpaceOnUse" x="2" y="2" width="7" height="9">
<path d="M7.80196 3.01514L8.05055 2.98869L8.02677 2.76514H7.80196H3.17241H2.9387L2.92298 2.99832L3.17241 3.01514L2.92298 2.99836L2.92297 2.99847L2.92294 2.99887L2.92284 3.0004L2.92244 3.00637L2.92092 3.02949L2.91525 3.11759C2.91042 3.19378 2.90365 3.3034 2.89586 3.43738C2.88027 3.70526 2.86058 4.07086 2.84417 4.46145C2.81183 5.23125 2.79039 6.13244 2.84639 6.5533C2.95568 7.37454 3.45575 9.21811 5.38991 10.0536L5.49078 10.0972L5.59109 10.0523C7.4282 9.23085 8.04263 7.57654 8.18436 6.55467C8.25589 6.03895 8.21954 5.13653 8.16933 4.38663C8.14388 4.00662 8.11422 3.65745 8.09092 3.40335C8.07927 3.27625 8.0692 3.17281 8.06204 3.10105L8.05363 3.01814L8.05136 2.99636L8.05077 2.99071L8.05061 2.98924L8.05057 2.98885L8.05056 2.98874L7.80196 3.01514Z" fill="white" stroke="white" stroke-width="0.5"/>
</mask>
<g mask="url(#mask2)">
<path fill-rule="evenodd" clip-rule="evenodd" d="M4.93114 3.29492C4.93114 3.29492 5.03439 3.45223 5.08061 3.69277C5.12683 3.93332 5.1348 4.20695 5.1348 4.20695L4.35276 4.08636V4.97683L5.15668 4.8493L5.13263 5.78307C5.13263 5.78307 5.03048 5.81413 4.78479 5.78307C4.5391 5.75202 4.05508 5.62192 4.05508 5.62192V6.47211C4.05508 6.47211 4.54683 6.31479 4.78479 6.27869C5.02274 6.24259 5.13263 6.27869 5.13263 6.27869L5.14041 7.09395H5.93777L5.93 6.27869C5.93 6.27869 6.18093 6.24006 6.44602 6.28188C6.71111 6.3237 6.96256 6.47211 6.96256 6.47211V5.62192C6.96256 5.62192 6.70781 5.74884 6.46754 5.78042C6.22726 5.812 5.93 5.78307 5.93 5.78307L5.95405 4.8493C5.95405 4.8493 6.09321 4.81487 6.27982 4.8402C6.46643 4.86553 6.69999 4.97683 6.69999 4.97683V4.08636C6.69999 4.08636 6.47235 4.21023 6.29323 4.2327C6.11412 4.25517 5.93216 4.20695 5.93216 4.20695C5.93216 4.20695 5.93882 3.91984 5.97733 3.70806C6.01584 3.49628 6.12491 3.29492 6.12491 3.29492H4.93114Z" fill="#F7FCFF"/>
<path fill-rule="evenodd" clip-rule="evenodd" d="M3.44867 8.12262C3.44867 8.12262 3.66842 7.65099 4.02598 7.56131C4.38355 7.47163 4.75849 7.84196 4.75849 7.84196C4.75849 7.84196 4.98744 7.09375 5.54549 7.09375C6.10354 7.09375 6.2994 7.84196 6.2994 7.84196C6.2994 7.84196 6.53749 7.56131 6.87988 7.56131C7.22227 7.56131 7.53948 8.12262 7.53948 8.12262C7.53948 8.12262 6.51678 9.97933 5.49408 9.97933C4.47137 9.97933 3.44867 8.12262 3.44867 8.12262Z" fill="#2E42A5"/>
</g>
</g>
</g>
</svg>

<svg width="16" height="12" fill="none" xmlns="http://www.w3.org/2000/svg">
  <mask id="a" maskUnits="userSpaceOnUse" x="0" y="0" width="16" height="12">
    <path fill="#fff" d="M0 0h16v12H0z"/>
  </mask>
  <g mask="url(#a)">
    <path fill-rule="evenodd" clip-rule="evenodd" d="M0 0v12h16V0H0z" fill="#3D58DB"/>
    <mask id="b" maskUnits="userSpaceOnUse" x="0" y="0" width="16" height="12">
      <path fill-rule="evenodd" clip-rule="evenodd" d="M0 0v12h16V0H0z" fill="#fff"/>
    </mask>
    <g mask="url(#b)">
      <path fill-rule="evenodd" clip-rule="evenodd" d="M0 0v4h16V0H0z" fill="#F7FCFF"/>
      <path fill-rule="evenodd" clip-rule="evenodd" d="M0 8v4h16V8H0z" fill="#E31D1C"/>
      <path d="M7.802 3.015l.249-.026-.024-.224H2.939l-.016.233.25.017-.25-.017h0v.008l-.002.024-.006.088a61.92 61.92 0 00-.07 1.344c-.033.77-.055 1.67.001 2.091.11.822.61 2.665 2.544 3.5l.1.044.101-.045c1.837-.821 2.452-2.475 2.593-3.497.072-.516.036-1.418-.015-2.168A40.918 40.918 0 008.062 3.1l-.008-.083-.003-.022V2.99h0l-.249.026z" fill="#E31D1C" stroke="#fff" stroke-width=".5"/>
      <mask id="c" maskUnits="userSpaceOnUse" x="2" y="2" width="7" height="9">
        <path d="M7.802 3.015l.249-.026-.024-.224H2.939l-.016.233.25.017-.25-.017h0v.008l-.002.024-.006.088a61.92 61.92 0 00-.07 1.344c-.033.77-.055 1.67.001 2.091.11.822.61 2.665 2.544 3.5l.1.044.101-.045c1.837-.821 2.452-2.475 2.593-3.497.072-.516.036-1.418-.015-2.168A40.918 40.918 0 008.062 3.1l-.008-.083-.003-.022V2.99h0l-.249.026z" fill="#fff" stroke="#fff" stroke-width=".5"/>
      </mask>
      <g mask="url(#c)" fill-rule="evenodd" clip-rule="evenodd">
        <path d="M4.931 3.295s.103.157.15.398c.046.24.054.514.054.514l-.782-.12v.89l.804-.128-.024.934s-.102.031-.348 0a7.715 7.715 0 01-.73-.161v.85s.492-.157.73-.193c.238-.036.348 0 .348 0l.008.815h.797l-.008-.815s.251-.039.516.003.517.19.517.19v-.85s-.255.127-.495.158c-.24.032-.538.003-.538.003l.024-.934s.14-.034.326-.009c.187.026.42.137.42.137v-.89s-.228.123-.407.146c-.179.022-.36-.026-.36-.026s.006-.287.044-.499c.039-.212.148-.413.148-.413H4.931z" fill="#F7FCFF"/>
        <path d="M3.449 8.123s.22-.472.577-.562c.358-.09.733.281.733.281s.228-.748.787-.748c.558 0 .753.748.753.748s.239-.28.58-.28c.343 0 .66.56.66.56S6.518 9.98 5.495 9.98 3.45 8.123 3.45 8.123z" fill="#2E42A5"/>
      </g>
    </g>
  </g>
</svg>
